src/components/ProductFeature/images/icons/dashboards.svg

<svg width="100" height="100" viewBox="0 0 100 100" fill="none" xmlns="http://www.w3.org/2000/svg">
<g clip-path="url(#clip0)">
<path d="M84.384 46.4577C80.8749 48.2737 79.5412 52.7523 81.3572 56.2663C84.0198 61.3502 85.4717 67.0395 85.4717 72.8516C85.4717 76.8478 88.7396 80.1157 92.7358 80.1157C96.7321 80.1157 100 76.8478 100 72.8516C100 64.7409 97.9428 56.6307 94.1877 49.4839C92.3764 45.9749 88.0159 44.5229 84.3839 46.4572L84.384 46.4577Z" fill="black"/>
<path d="M55.8152 37.8653C59.8115 38.4706 63.5617 35.8081 64.1671 31.8118C64.7724 27.8156 62.1099 24.0653 58.1136 23.46C55.451 22.9776 52.6655 22.8546 50.0029 22.8546C22.3979 22.8499 0 45.2476 0 72.8527C0 76.8489 3.26791 80.1169 7.26417 80.1169C11.2604 80.1169 14.5283 76.8489 14.5283 72.8527C14.5283 53.2406 30.5083 37.3781 50.0029 37.3781C51.942 37.3781 53.8762 37.5011 55.8152 37.8652V37.8653Z" fill="black"/>
<path d="M87.775 20.4276C87.0467 19.8223 85.836 19.8223 85.2306 20.6688L44.067 68.6148C43.8258 68.9789 43.5846 69.2201 43.3387 69.5843C41.2815 73.0933 42.3692 77.5768 45.8831 79.634C49.3922 81.6912 53.8756 80.6035 55.9328 77.0896L88.2572 22.7318C88.6213 22.0035 88.5031 21.0341 87.7748 20.4287L87.775 20.4276Z" fill="black"/>
</g>
<defs>
<clipPath id="clip0">
<rect width="100" height="100" fill="white"/>
</clipPath>
</defs>
</svg>

<svg fill="none" xmlns="http://www.w3.org/2000/svg" viewBox="0 0 100 100"><g clip-path="url(#clip0)" fill="#A970DC"><path d="M84.384 46.458c-3.51 1.816-4.843 6.294-3.027 9.808 2.663 5.084 4.115 10.774 4.115 16.586 0 3.996 3.268 7.264 7.264 7.264 3.996 0 7.264-3.268 7.264-7.264 0-8.111-2.057-16.221-5.812-23.368a7.191 7.191 0 00-9.804-3.027zM55.815 37.865c3.997.606 7.747-2.057 8.352-6.053.605-3.996-2.057-7.747-6.053-8.352-2.663-.482-5.448-.605-8.111-.605C22.398 22.85 0 45.248 0 72.853c0 3.996 3.268 7.264 7.264 7.264 3.996 0 7.264-3.268 7.264-7.264 0-19.612 15.98-35.475 35.475-35.475 1.939 0 3.873.123 5.812.487zM87.775 20.428c-.728-.606-1.939-.606-2.544.24L44.067 68.616c-.241.364-.482.605-.728.97-2.057 3.508-.97 7.992 2.544 10.049 3.51 2.057 7.993.97 10.05-2.544l32.324-54.358a1.89 1.89 0 00-.482-2.303v-.001z"/></g><defs><clipPath id="clip0"><path fill="#A970DC" d="M0 0h100v100H0z"/></clipPath></defs></svg>
